src/status/24/thunderbird-attention-panel.svg

<svg width="24" height="24" version="1.1" viewBox="0 0 24 24" xmlns="http://www.w3.org/2000/svg">
 <g id="surface1">
  <path d="m7.035156 20.210938c-0.847656-1.746094-1.046875-2.726563-1.046875-2.726563s1.195313 1.25 2.421875 1.320313l-1.378906-2s-3.257812-1.089844-4.136719-1.453126c0.40625 3.476563 4.144531 4.859376 4.144531 4.859376z" style="fill:rgb(36.862746%,50.588238%,67.450982%)"/>
  <path d="m2.730469 15.90625 13.835937 4.53125 3.859375-10.730469-16.578125-3.046875c-2.007812 1.484375-1.117187 9.246094-1.117187 9.246094z" style="fill:rgb(53.333336%,75.294119%,81.568629%)"/>
  <path transform="scale(1.8897)" d="m1.444922 8.417342 7.319697 2.397867 1.858347-5.407604-6.155904 2.164282-2.616983-3.776642c-1.058369 0.783442-0.405157 4.622097-0.405157 4.622097z" style="fill:none;stroke-width:.1688;stroke:rgb(47.843137%,53.333336%,63.137257%)"/>
  <path d="m10.503906 1.804688c-1.019531 0.050781-2.148437 0.648437-3.039062 1.640624-3.296875 1.476563-4.835938 3.769532-5.460938 5.914063-1.386718 4.769531 1.417969 9.726563 5.035156 10.851563-4.230468-2.082032-4.335937-6.054688-4.265624-8.128907 0.421874 0.632813 1.257812 0.710938 1.257812 0.710938-0.09375-0.148438-0.175781-0.289063-0.25-0.429688-0.28125-0.695312-0.492188-1.933593-0.148438-3.054687 0.21875-0.703125 0.925782-1.691406 1.882813-2 0.070313 0.519531 0.238281 0.996094 0.121094 1.542968-0.632813 1.101563 0.03125 1.839844 0.03125 1.839844 0.878906-0.964844 1.09375-0.800781 1.90625-1.269531 0.933593-0.535156 1.773437-1.113281 2.082031-1.074219 1.246094-0.179687 1.839844 0.140625 3.203125 0.386719 0.875 0.160156 1.8125 0.277344 2.542969 0.363281 0.3125 0.699219 0.46875 1.417969 0.527344 2.09375 0 0 0.207031 2.230469-0.472657 3.539063 0.539063-0.304688 0.964844-0.652344 1.300781-0.992188 0.070313 1.859375-1.285156 3.375-1.285156 3.375 0.515625-0.15625 0.9375-0.332031 1.296875-0.507812-0.222656 1.21875-1.109375 3.742187-4.613281 5.414062 2.894531-0.367187 4.074219-1.769531 4.074219-1.769531s-0.265625 0.964844-2.015625 1.945312c6.144531-1.117187 7.785156-6.761718 7.785156-6.761718 0-0.003906-0.003906-0.003906-0.003906-0.011719 0.867187-2.71875 0.039062-6.058594-1.039063-7.914063-0.636719-1.113281-1.59375-2.058593-2.183593-2.585937-0.09375-0.085937-0.1875-0.164063-0.28125-0.246094-0.164063-0.132812-0.269532-0.214843-0.269532-0.214843l-0.007812 0.011718c-0.085938-0.066406-0.167969-0.125-0.261719-0.183594-0.980469-0.671874-2.085937-1.089843-2.667969-1.21875-2.195312-0.8125-3.738281-0.660156-4.738281-0.5625 0 0 0.046875-0.097656 0.203125-0.234374 0.007812-0.003907 0.011719-0.011719 0.019531-0.015626 0.003907 0 0.003907-0.007812 0.003907-0.007812 0.019531-0.011719 0.035156-0.023438 0.054687-0.035156 0.015625-0.015625 0.023437-0.023438 0.023437-0.023438-0.429687-0.023437-1.121093 0.445313-1.296874 0.539063 0.007812-0.003907 0.007812-0.011719 0.007812-0.015625 0.003906 0 0.003906-0.007813 0.003906-0.007813 0.007813-0.015625 0.011719-0.035156 0.023438-0.050781 0.007812-0.011719 0.011718-0.023438 0.019531-0.042969 0.011719-0.011719 0.015625-0.023437 0.027344-0.035156 0-0.003906 0-0.003906 0.007812-0.003906 0.011719-0.019531 0.023438-0.042969 0.035157-0.054688 0-0.003906 0.003906-0.003906 0.003906-0.003906 0-0.007813 0-0.007813 0.007812-0.011719l0.003906-0.007812c0.222657-0.28125 0.644532-0.578125 0.769532-0.667969h0.003906c0.019531-0.015625 0.035156-0.023437 0.035156-0.023437z" style="fill:rgb(36.862746%,50.588238%,67.450982%)"/>
 </g>
</svg>

<svg xmlns="http://www.w3.org/2000/svg" xmlns:xlink="http://www.w3.org/1999/xlink" width="24" height="24" viewBox="0 0 24 24" version="1.1">
<g id="surface1">
<path style=" stroke:none;fill-rule:nonzero;fill:rgb(36.862746%,50.588238%,67.450982%);fill-opacity:1;" d="M 7.035156 20.210938 C 6.1875 18.464844 5.988281 17.484375 5.988281 17.484375 C 5.988281 17.484375 7.183594 18.734375 8.410156 18.804688 L 7.03125 16.804688 C 7.03125 16.804688 3.773438 15.714844 2.894531 15.351562 C 3.300781 18.828125 7.039062 20.210938 7.039062 20.210938 Z M 7.035156 20.210938 "/>
<path style=" stroke:none;fill-rule:nonzero;fill:rgb(53.333336%,75.294119%,81.568629%);fill-opacity:1;" d="M 2.730469 15.90625 L 16.566406 20.4375 L 20.425781 9.707031 L 3.847656 6.660156 C 1.839844 8.144531 2.730469 15.90625 2.730469 15.90625 Z M 2.730469 15.90625 "/>
<path style="fill:none;stroke-width:0.1688;stroke-linecap:butt;stroke-linejoin:miter;stroke:rgb(47.843137%,53.333336%,63.137257%);stroke-opacity:1;stroke-miterlimit:4;" d="M 1.444922 8.417342 L 8.764619 10.815209 L 10.622966 5.407605 L 4.467062 7.571887 L 1.850079 3.795245 C 0.79171 4.578687 1.444922 8.417342 1.444922 8.417342 Z M 1.444922 8.417342 " transform="matrix(1.8897,0,0,1.8897,0,0)"/>
<path style=" stroke:none;fill-rule:nonzero;fill:rgb(36.862746%,50.588238%,67.450982%);fill-opacity:1;" d="M 10.503906 1.804688 C 9.484375 1.855469 8.355469 2.453125 7.464844 3.445312 C 4.167969 4.921875 2.628906 7.214844 2.003906 9.359375 C 0.617188 14.128906 3.421875 19.085938 7.039062 20.210938 C 2.808594 18.128906 2.703125 14.15625 2.773438 12.082031 C 3.195312 12.714844 4.03125 12.792969 4.03125 12.792969 C 3.9375 12.644531 3.855469 12.503906 3.78125 12.363281 C 3.5 11.667969 3.289062 10.429688 3.632812 9.308594 C 3.851562 8.605469 4.558594 7.617188 5.515625 7.308594 C 5.585938 7.828125 5.753906 8.304688 5.636719 8.851562 C 5.003906 9.953125 5.667969 10.691406 5.667969 10.691406 C 6.546875 9.726562 6.761719 9.890625 7.574219 9.421875 C 8.507812 8.886719 9.347656 8.308594 9.65625 8.347656 C 10.902344 8.167969 11.496094 8.488281 12.859375 8.734375 C 13.734375 8.894531 14.671875 9.011719 15.402344 9.097656 C 15.714844 9.796875 15.871094 10.515625 15.929688 11.191406 C 15.929688 11.191406 16.136719 13.421875 15.457031 14.730469 C 15.996094 14.425781 16.421875 14.078125 16.757812 13.738281 C 16.828125 15.597656 15.472656 17.113281 15.472656 17.113281 C 15.988281 16.957031 16.410156 16.78125 16.769531 16.605469 C 16.546875 17.824219 15.660156 20.347656 12.15625 22.019531 C 15.050781 21.652344 16.230469 20.25 16.230469 20.25 C 16.230469 20.25 15.964844 21.214844 14.214844 22.195312 C 20.359375 21.078125 22 15.433594 22 15.433594 C 22 15.429688 21.996094 15.429688 21.996094 15.421875 C 22.863281 12.703125 22.035156 9.363281 20.957031 7.507812 C 20.320312 6.394531 19.363281 5.449219 18.773438 4.921875 C 18.679688 4.835938 18.585938 4.757812 18.492188 4.675781 C 18.328125 4.542969 18.222656 4.460938 18.222656 4.460938 L 18.214844 4.472656 C 18.128906 4.40625 18.046875 4.347656 17.953125 4.289062 C 16.972656 3.617188 15.867188 3.199219 15.285156 3.070312 C 13.089844 2.257812 11.546875 2.410156 10.546875 2.507812 C 10.546875 2.507812 10.59375 2.410156 10.75 2.273438 C 10.757812 2.269531 10.761719 2.261719 10.769531 2.257812 C 10.773438 2.257812 10.773438 2.25 10.773438 2.25 C 10.792969 2.238281 10.808594 2.226562 10.828125 2.214844 C 10.84375 2.199219 10.851562 2.191406 10.851562 2.191406 C 10.421875 2.167969 9.730469 2.636719 9.554688 2.730469 C 9.5625 2.726562 9.5625 2.71875 9.5625 2.714844 C 9.566406 2.714844 9.566406 2.707031 9.566406 2.707031 C 9.574219 2.691406 9.578125 2.671875 9.589844 2.65625 C 9.597656 2.644531 9.601562 2.632812 9.609375 2.613281 C 9.621094 2.601562 9.625 2.589844 9.636719 2.578125 C 9.636719 2.574219 9.636719 2.574219 9.644531 2.574219 C 9.65625 2.554688 9.667969 2.53125 9.679688 2.519531 C 9.679688 2.515625 9.683594 2.515625 9.683594 2.515625 C 9.683594 2.507812 9.683594 2.507812 9.691406 2.503906 L 9.695312 2.496094 C 9.917969 2.214844 10.339844 1.917969 10.464844 1.828125 L 10.46875 1.828125 C 10.488281 1.8125 10.503906 1.804688 10.503906 1.804688 Z M 10.503906 1.804688 "/>
</g>
</svg>
